X: 34309
T: Retiro, The
R: jig
M: 6/8
K: Cdorian
G,|:CDE DCB,|GEF GBc|ded cAG|FDB, FD=B,|
CDE DCB,|GEF GBc|cBG FDB,|~C7 c:|
|:cBG c3|cde dcB|BGF B3|Bcd edc|
cBG c3|cde dBG|FDB, FD=B,|~C7 c:|

